X:438
T:Sweet Chiming Bells (While Shepherds Watched)
M:4/4
L:1/8
K:G
GA | B2 G2 d2 B2 | B2 A2 A2 AB | c2 A2 d2 c2 | B6 GA | 
B2 G2 d2 B2 | B2 A2 A2 AB | c2 c2 B2 A2 | G6 d2 | 
d6 d2 | c2 d2 B2 c2 | A6 d2 | 
d6 d2 | c2 d2 B2 c2 | A6 GA | 
B2 d2 c2 e2 | d2 g2 e2 c2 | B4 A4 | G6 GA | 
B2 d2 c2 e2 | d2 g2 e2 c2 | B4 A4 | G6 || 

